Sources/FrostedUI/Resources/Icons.xcassets/lockFilled24.imageset/lock-filled-24.svg

<svg width="24" height="24" viewBox="0 0 24 24" fill="none" xmlns="http://www.w3.org/2000/svg" data-fui-icon="true">
  <path
    d="M12 0C16.0041 0 19.25 3.24594 19.25 7.25V10.1357C20.8355 10.5734 22 12.0253 22 13.75V20.25C22 22.3211 20.3211 24 18.25 24H5.75C3.67893 24 2 22.3211 2 20.25V13.75C2 12.0253 3.16453 10.5734 4.75 10.1357V7.25C4.75 3.24594 7.99594 0 12 0ZM12 2C9.1005 2 6.75 4.3505 6.75 7.25V10H17.25V7.25C17.25 4.35051 14.8995 2 12 2Z"
    fill="currentColor"
  />
</svg>

<svg xmlns="http://www.w3.org/2000/svg" width="24" height="24" fill="none" data-fui-icon="true" viewBox="0 0 24 24"><path fill="currentColor" d="M12 0a7.25 7.25 0 0 1 7.25 7.25v2.886A3.75 3.75 0 0 1 22 13.75v6.5A3.75 3.75 0 0 1 18.25 24H5.75A3.75 3.75 0 0 1 2 20.25v-6.5a3.75 3.75 0 0 1 2.75-3.614V7.25A7.25 7.25 0 0 1 12 0m0 2a5.25 5.25 0 0 0-5.25 5.25V10h10.5V7.25C17.25 4.35 14.9 2 12 2"/></svg>
